X:112
M:2/4
L:1/8
K:D
| D2 DB | AF FB | AF DE | FE E2 | 
| d2 ce | Bc BA | d2 ce | B2 BB/c/ | 
dB c/B/A | Bc/B/ A>B | AF EF/E/ | D2 D2 :|| 

